images/421327.svg

<?xml version="1.0" encoding="UTF-8"?>
<svg xmlns="http://www.w3.org/2000/svg" xmlns:xlink="http://www.w3.org/1999/xlink" width="300pt" height="300pt" viewBox="0 0 300 300" version="1.1">
<defs>
<g>
<symbol overflow="visible" id="glyph0-0">
<path style="stroke:none;" d="M 0.75 2.65625 L 0.75 -10.578125 L 8.25 -10.578125 L 8.25 2.65625 Z M 1.59375 1.8125 L 7.40625 1.8125 L 7.40625 -9.734375 L 1.59375 -9.734375 Z M 1.59375 1.8125 "/>
</symbol>
<symbol overflow="visible" id="glyph0-1">
<path style="stroke:none;" d="M 8.03125 -10.578125 L 8.03125 -9.140625 C 7.46875 -9.398438 6.9375 -9.597656 6.4375 -9.734375 C 5.9375 -9.867188 5.457031 -9.9375 5 -9.9375 C 4.1875 -9.9375 3.5625 -9.78125 3.125 -9.46875 C 2.6875 -9.15625 2.46875 -8.707031 2.46875 -8.125 C 2.46875 -7.644531 2.613281 -7.28125 2.90625 -7.03125 C 3.195312 -6.789062 3.75 -6.59375 4.5625 -6.4375 L 5.453125 -6.25 C 6.554688 -6.039062 7.367188 -5.671875 7.890625 -5.140625 C 8.421875 -4.609375 8.6875 -3.898438 8.6875 -3.015625 C 8.6875 -1.953125 8.332031 -1.144531 7.625 -0.59375 C 6.914062 -0.0507812 5.875 0.21875 4.5 0.21875 C 3.976562 0.21875 3.425781 0.15625 2.84375 0.03125 C 2.257812 -0.0820312 1.65625 -0.253906 1.03125 -0.484375 L 1.03125 -2 C 1.632812 -1.664062 2.222656 -1.410156 2.796875 -1.234375 C 3.367188 -1.066406 3.9375 -0.984375 4.5 -0.984375 C 5.34375 -0.984375 5.992188 -1.148438 6.453125 -1.484375 C 6.910156 -1.816406 7.140625 -2.289062 7.140625 -2.90625 C 7.140625 -3.445312 6.972656 -3.867188 6.640625 -4.171875 C 6.316406 -4.472656 5.78125 -4.695312 5.03125 -4.84375 L 4.125 -5.03125 C 3.019531 -5.25 2.21875 -5.59375 1.71875 -6.0625 C 1.226562 -6.53125 0.984375 -7.179688 0.984375 -8.015625 C 0.984375 -8.984375 1.320312 -9.742188 2 -10.296875 C 2.6875 -10.859375 3.628906 -11.140625 4.828125 -11.140625 C 5.335938 -11.140625 5.859375 -11.09375 6.390625 -11 C 6.921875 -10.90625 7.46875 -10.765625 8.03125 -10.578125 Z M 8.03125 -10.578125 "/>
</symbol>
<symbol overflow="visible" id="glyph0-2">
<path style="stroke:none;" d="M 1.46875 -10.9375 L 3.46875 -10.9375 L 8.3125 -1.78125 L 8.3125 -10.9375 L 9.75 -10.9375 L 9.75 0 L 7.75 0 L 2.90625 -9.140625 L 2.90625 0 L 1.46875 0 Z M 1.46875 -10.9375 "/>
</symbol>
<symbol overflow="visible" id="glyph0-3">
<path style="stroke:none;" d="M 1.46875 -10.9375 L 2.953125 -10.9375 L 2.953125 -6.453125 L 8.328125 -6.453125 L 8.328125 -10.9375 L 9.8125 -10.9375 L 9.8125 0 L 8.328125 0 L 8.328125 -5.203125 L 2.953125 -5.203125 L 2.953125 0 L 1.46875 0 Z M 1.46875 -10.9375 "/>
</symbol>
<symbol overflow="visible" id="glyph1-0">
<path style="stroke:none;" d="M 0.59375 2.125 L 0.59375 -8.46875 L 6.59375 -8.46875 L 6.59375 2.125 Z M 1.265625 1.453125 L 5.9375 1.453125 L 5.9375 -7.78125 L 1.265625 -7.78125 Z M 1.265625 1.453125 "/>
</symbol>
<symbol overflow="visible" id="glyph1-1">
<path style="stroke:none;" d="M 5.515625 -7.53125 L 5.515625 -4.265625 L 8.78125 -4.265625 L 8.78125 -3.265625 L 5.515625 -3.265625 L 5.515625 0 L 4.53125 0 L 4.53125 -3.265625 L 1.265625 -3.265625 L 1.265625 -4.265625 L 4.53125 -4.265625 L 4.53125 -7.53125 Z M 5.515625 -7.53125 "/>
</symbol>
<symbol overflow="visible" id="glyph1-2">
<path style="stroke:none;" d="M 0.59375 -3.765625 L 3.75 -3.765625 L 3.75 -2.8125 L 0.59375 -2.8125 Z M 0.59375 -3.765625 "/>
</symbol>
</g>
</defs>
<g id="surface49309">
<rect x="0" y="0" width="300" height="300" style="fill:rgb(100%,100%,100%);fill-opacity:1;stroke:none;"/>
<path style="fill:none;stroke-width:1.2;stroke-linecap:butt;stroke-linejoin:miter;stroke:rgb(0%,0%,0%);stroke-opacity:1;stroke-miterlimit:10;" d="M 92.964844 262.222656 L 63.402344 242.246094 "/>
<path style="fill:none;stroke-width:1.2;stroke-linecap:butt;stroke-linejoin:miter;stroke:rgb(0%,0%,100%);stroke-opacity:1;stroke-miterlimit:10;" d="M 121.097656 240.277344 L 107.03125 251.25 "/>
<path style="fill:none;stroke-width:1.2;stroke-linecap:butt;stroke-linejoin:miter;stroke:rgb(0%,0%,0%);stroke-opacity:1;stroke-miterlimit:10;" d="M 107.03125 251.25 L 92.964844 262.222656 "/>
<path style="fill:none;stroke-width:1.2;stroke-linecap:butt;stroke-linejoin:miter;stroke:rgb(0%,0%,0%);stroke-opacity:1;stroke-miterlimit:10;" d="M 63.402344 242.246094 L 68.332031 225.101562 "/>
<path style="fill:none;stroke-width:1.2;stroke-linecap:butt;stroke-linejoin:miter;stroke:rgb(80%,80%,0%);stroke-opacity:1;stroke-miterlimit:10;" d="M 68.332031 225.101562 L 73.265625 207.957031 "/>
<path style="fill:none;stroke-width:1.2;stroke-linecap:butt;stroke-linejoin:miter;stroke:rgb(80%,80%,0%);stroke-opacity:1;stroke-miterlimit:10;" d="M 73.265625 207.957031 L 91.09375 207.347656 "/>
<path style="fill:none;stroke-width:1.2;stroke-linecap:butt;stroke-linejoin:miter;stroke:rgb(0%,0%,0%);stroke-opacity:1;stroke-miterlimit:10;" d="M 91.09375 207.347656 L 108.921875 206.742188 "/>
<path style=" stroke:none;fill-rule:nonzero;fill:rgb(100%,100%,100%);fill-opacity:1;" d="M 68.265625 198.957031 L 78.265625 198.957031 L 78.265625 216.957031 L 68.265625 216.957031 Z M 68.265625 198.957031 "/>
<g style="fill:rgb(80%,80%,0%);fill-opacity:1;">
  <use xlink:href="#glyph0-1" x="68.265625" y="212.571289"/>
</g>
<path style="fill:none;stroke-width:1.2;stroke-linecap:butt;stroke-linejoin:miter;stroke:rgb(0%,0%,0%);stroke-opacity:1;stroke-miterlimit:10;" d="M 108.921875 206.742188 L 115.011719 223.507812 "/>
<path style="fill:none;stroke-width:1.2;stroke-linecap:butt;stroke-linejoin:miter;stroke:rgb(0%,0%,100%);stroke-opacity:1;stroke-miterlimit:10;" d="M 115.011719 223.507812 L 121.097656 240.277344 "/>
<path style="fill:none;stroke-width:1.2;stroke-linecap:butt;stroke-linejoin:miter;stroke:rgb(0%,0%,0%);stroke-opacity:1;stroke-miterlimit:10;" d="M 118.03125 207.230469 L 122.902344 220.644531 "/>
<path style="fill:none;stroke-width:1.2;stroke-linecap:butt;stroke-linejoin:miter;stroke:rgb(0%,0%,100%);stroke-opacity:1;stroke-miterlimit:10;" d="M 122.902344 220.644531 L 127.773438 234.058594 "/>
<path style="fill:none;stroke-width:1.2;stroke-linecap:butt;stroke-linejoin:miter;stroke:rgb(80%,80%,0%);stroke-opacity:1;stroke-miterlimit:10;" d="M 137.058594 184.796875 L 122.992188 195.769531 "/>
<path style="fill:none;stroke-width:1.2;stroke-linecap:butt;stroke-linejoin:miter;stroke:rgb(0%,0%,0%);stroke-opacity:1;stroke-miterlimit:10;" d="M 122.992188 195.769531 L 108.921875 206.742188 "/>
<path style="fill:none;stroke-width:1.2;stroke-linecap:butt;stroke-linejoin:miter;stroke:rgb(0%,0%,100%);stroke-opacity:1;stroke-miterlimit:10;" d="M 121.097656 240.277344 L 138.925781 239.671875 "/>
<path style="fill:none;stroke-width:1.2;stroke-linecap:butt;stroke-linejoin:miter;stroke:rgb(0%,0%,0%);stroke-opacity:1;stroke-miterlimit:10;" d="M 138.925781 239.671875 L 156.757812 239.0625 "/>
<path style=" stroke:none;fill-rule:nonzero;fill:rgb(100%,100%,100%);fill-opacity:1;" d="M 110.097656 230.277344 L 132.097656 230.277344 L 132.097656 250.277344 L 110.097656 250.277344 Z M 110.097656 230.277344 "/>
<g style="fill:rgb(0%,0%,100%);fill-opacity:1;">
  <use xlink:href="#glyph0-2" x="110.097656" y="246.504883"/>
</g>
<g style="fill:rgb(0%,0%,100%);fill-opacity:1;">
  <use xlink:href="#glyph1-1" x="121.073242" y="241.62207"/>
</g>
<path style="fill:none;stroke-width:1.2;stroke-linecap:butt;stroke-linejoin:miter;stroke:rgb(0%,0%,0%);stroke-opacity:1;stroke-miterlimit:10;" d="M 156.757812 239.0625 L 181.519531 264.75 "/>
<path style="fill:none;stroke-width:1.2;stroke-linecap:butt;stroke-linejoin:miter;stroke:rgb(0%,0%,0%);stroke-opacity:1;stroke-miterlimit:10;" d="M 165.277344 235.804688 L 185.089844 256.355469 "/>
<path style="fill:none;stroke-width:1.2;stroke-linecap:butt;stroke-linejoin:miter;stroke:rgb(0%,0%,0%);stroke-opacity:1;stroke-miterlimit:10;" d="M 166.621094 204.773438 L 156.757812 239.0625 "/>
<path style="fill:none;stroke-width:1.2;stroke-linecap:butt;stroke-linejoin:miter;stroke:rgb(0%,0%,0%);stroke-opacity:1;stroke-miterlimit:10;" d="M 181.519531 264.75 L 216.148438 256.148438 "/>
<path style="fill:none;stroke-width:1.2;stroke-linecap:butt;stroke-linejoin:miter;stroke:rgb(0%,0%,0%);stroke-opacity:1;stroke-miterlimit:10;" d="M 216.148438 256.148438 L 226.011719 221.859375 "/>
<path style="fill:none;stroke-width:1.2;stroke-linecap:butt;stroke-linejoin:miter;stroke:rgb(0%,0%,0%);stroke-opacity:1;stroke-miterlimit:10;" d="M 209.066406 250.398438 L 216.957031 222.964844 "/>
<path style="fill:none;stroke-width:1.2;stroke-linecap:butt;stroke-linejoin:miter;stroke:rgb(0%,0%,0%);stroke-opacity:1;stroke-miterlimit:10;" d="M 226.011719 221.859375 L 201.246094 196.171875 "/>
<path style="fill:none;stroke-width:1.2;stroke-linecap:butt;stroke-linejoin:miter;stroke:rgb(0%,0%,0%);stroke-opacity:1;stroke-miterlimit:10;" d="M 201.246094 196.171875 L 166.621094 204.773438 "/>
<path style="fill:none;stroke-width:1.2;stroke-linecap:butt;stroke-linejoin:miter;stroke:rgb(0%,0%,0%);stroke-opacity:1;stroke-miterlimit:10;" d="M 199.808594 205.179688 L 172.109375 212.0625 "/>
<path style="fill:none;stroke-width:1.2;stroke-linecap:butt;stroke-linejoin:miter;stroke:rgb(0%,0%,0%);stroke-opacity:1;stroke-miterlimit:10;" d="M 166.621094 204.773438 L 151.839844 194.785156 "/>
<path style="fill:none;stroke-width:1.2;stroke-linecap:butt;stroke-linejoin:miter;stroke:rgb(80%,80%,0%);stroke-opacity:1;stroke-miterlimit:10;" d="M 151.839844 194.785156 L 137.058594 184.796875 "/>
<path style=" stroke:none;fill-rule:nonzero;fill:rgb(100%,100%,100%);fill-opacity:1;" d="M 132.058594 175.796875 L 142.058594 175.796875 L 142.058594 193.796875 L 132.058594 193.796875 Z M 132.058594 175.796875 "/>
<g style="fill:rgb(80%,80%,0%);fill-opacity:1;">
  <use xlink:href="#glyph0-1" x="132.058594" y="189.411133"/>
</g>
<path style="fill:none;stroke-width:1.2;stroke-linecap:butt;stroke-linejoin:miter;stroke:rgb(0%,0%,0%);stroke-opacity:1;stroke-miterlimit:10;" d="M 95.425781 161.011719 L 68.753906 137.3125 "/>
<path style="fill:none;stroke-width:1.2;stroke-linecap:butt;stroke-linejoin:miter;stroke:rgb(0%,0%,0%);stroke-opacity:1;stroke-miterlimit:10;" d="M 98.335938 152.363281 L 77 133.40625 "/>
<path style="fill:none;stroke-width:1.2;stroke-linecap:butt;stroke-linejoin:miter;stroke:rgb(0%,0%,0%);stroke-opacity:1;stroke-miterlimit:10;" d="M 129.285156 149.761719 L 95.425781 161.011719 "/>
<path style="fill:none;stroke-width:1.2;stroke-linecap:butt;stroke-linejoin:miter;stroke:rgb(0%,0%,0%);stroke-opacity:1;stroke-miterlimit:10;" d="M 68.753906 137.3125 L 75.945312 102.363281 "/>
<path style="fill:none;stroke-width:1.2;stroke-linecap:butt;stroke-linejoin:miter;stroke:rgb(0%,0%,0%);stroke-opacity:1;stroke-miterlimit:10;" d="M 75.945312 102.363281 L 109.804688 91.113281 "/>
<path style="fill:none;stroke-width:1.2;stroke-linecap:butt;stroke-linejoin:miter;stroke:rgb(0%,0%,0%);stroke-opacity:1;stroke-miterlimit:10;" d="M 81.976562 109.207031 L 109.066406 100.207031 "/>
<path style="fill:none;stroke-width:1.2;stroke-linecap:butt;stroke-linejoin:miter;stroke:rgb(0%,0%,0%);stroke-opacity:1;stroke-miterlimit:10;" d="M 109.804688 91.113281 L 136.476562 114.816406 "/>
<path style="fill:none;stroke-width:1.2;stroke-linecap:butt;stroke-linejoin:miter;stroke:rgb(80%,80%,0%);stroke-opacity:1;stroke-miterlimit:10;" d="M 124.101562 58.425781 L 116.953125 74.769531 "/>
<path style="fill:none;stroke-width:1.2;stroke-linecap:butt;stroke-linejoin:miter;stroke:rgb(0%,0%,0%);stroke-opacity:1;stroke-miterlimit:10;" d="M 116.953125 74.769531 L 109.804688 91.113281 "/>
<path style="fill:none;stroke-width:1.2;stroke-linecap:butt;stroke-linejoin:miter;stroke:rgb(0%,0%,0%);stroke-opacity:1;stroke-miterlimit:10;" d="M 136.476562 114.816406 L 129.285156 149.761719 "/>
<path style="fill:none;stroke-width:1.2;stroke-linecap:butt;stroke-linejoin:miter;stroke:rgb(0%,0%,0%);stroke-opacity:1;stroke-miterlimit:10;" d="M 127.535156 116.617188 L 121.78125 144.578125 "/>
<path style="fill:none;stroke-width:1.2;stroke-linecap:butt;stroke-linejoin:miter;stroke:rgb(0%,0%,0%);stroke-opacity:1;stroke-miterlimit:10;" d="M 136.476562 114.816406 L 151.867188 105.792969 "/>
<path style="fill:none;stroke-width:1.2;stroke-linecap:butt;stroke-linejoin:miter;stroke:rgb(0%,0%,100%);stroke-opacity:1;stroke-miterlimit:10;" d="M 151.867188 105.792969 L 167.257812 96.773438 "/>
<path style="fill:none;stroke-width:1.2;stroke-linecap:butt;stroke-linejoin:miter;stroke:rgb(0%,0%,100%);stroke-opacity:1;stroke-miterlimit:10;" d="M 167.257812 96.773438 L 163.433594 79.347656 "/>
<path style="fill:none;stroke-width:1.2;stroke-linecap:butt;stroke-linejoin:miter;stroke:rgb(0%,0%,0%);stroke-opacity:1;stroke-miterlimit:10;" d="M 163.433594 79.347656 L 159.609375 61.921875 "/>
<path style="fill:none;stroke-width:1.2;stroke-linecap:butt;stroke-linejoin:miter;stroke:rgb(0%,0%,100%);stroke-opacity:1;stroke-miterlimit:10;" d="M 167.257812 96.773438 L 183.601562 103.921875 "/>
<path style="fill:none;stroke-width:1.2;stroke-linecap:butt;stroke-linejoin:miter;stroke:rgb(0%,0%,0%);stroke-opacity:1;stroke-miterlimit:10;" d="M 183.601562 103.921875 L 199.949219 111.070312 "/>
<path style=" stroke:none;fill-rule:nonzero;fill:rgb(100%,100%,100%);fill-opacity:1;" d="M 162.257812 87.773438 L 173.257812 87.773438 L 173.257812 105.773438 L 162.257812 105.773438 Z M 162.257812 87.773438 "/>
<g style="fill:rgb(0%,0%,100%);fill-opacity:1;">
  <use xlink:href="#glyph0-2" x="162.257812" y="101.387695"/>
</g>
<path style="fill:none;stroke-width:1.2;stroke-linecap:butt;stroke-linejoin:miter;stroke:rgb(0%,0%,0%);stroke-opacity:1;stroke-miterlimit:10;" d="M 162.75 64.710938 L 174.597656 51.375 "/>
<path style="fill:none;stroke-width:1.2;stroke-linecap:butt;stroke-linejoin:miter;stroke:rgb(0%,0%,100%);stroke-opacity:1;stroke-miterlimit:10;" d="M 174.597656 51.375 L 186.449219 38.039062 "/>
<path style="fill:none;stroke-width:1.2;stroke-linecap:butt;stroke-linejoin:miter;stroke:rgb(0%,0%,0%);stroke-opacity:1;stroke-miterlimit:10;" d="M 156.472656 59.132812 L 168.324219 45.796875 "/>
<path style="fill:none;stroke-width:1.2;stroke-linecap:butt;stroke-linejoin:miter;stroke:rgb(0%,0%,100%);stroke-opacity:1;stroke-miterlimit:10;" d="M 168.324219 45.796875 L 180.171875 32.460938 "/>
<path style="fill:none;stroke-width:1.2;stroke-linecap:butt;stroke-linejoin:miter;stroke:rgb(0%,0%,0%);stroke-opacity:1;stroke-miterlimit:10;" d="M 159.609375 61.921875 L 141.855469 60.171875 "/>
<path style="fill:none;stroke-width:1.2;stroke-linecap:butt;stroke-linejoin:miter;stroke:rgb(80%,80%,0%);stroke-opacity:1;stroke-miterlimit:10;" d="M 141.855469 60.171875 L 124.101562 58.425781 "/>
<path style=" stroke:none;fill-rule:nonzero;fill:rgb(100%,100%,100%);fill-opacity:1;" d="M 172.308594 26.25 L 195.308594 26.25 L 195.308594 44.25 L 172.308594 44.25 Z M 172.308594 26.25 "/>
<g style="fill:rgb(0%,0%,100%);fill-opacity:1;">
  <use xlink:href="#glyph0-2" x="172.308594" y="39.864258"/>
  <use xlink:href="#glyph0-3" x="183.28418" y="39.864258"/>
</g>
<path style=" stroke:none;fill-rule:nonzero;fill:rgb(100%,100%,100%);fill-opacity:1;" d="M 119.101562 49.425781 L 129.101562 49.425781 L 129.101562 67.425781 L 119.101562 67.425781 Z M 119.101562 49.425781 "/>
<g style="fill:rgb(80%,80%,0%);fill-opacity:1;">
  <use xlink:href="#glyph0-1" x="119.101562" y="63.040039"/>
</g>
<path style="fill:none;stroke-width:1.2;stroke-linecap:butt;stroke-linejoin:miter;stroke:rgb(0%,0%,0%);stroke-opacity:1;stroke-miterlimit:10;" d="M 199.949219 111.070312 L 203.910156 146.527344 "/>
<path style="fill:none;stroke-width:1.2;stroke-linecap:butt;stroke-linejoin:miter;stroke:rgb(0%,0%,0%);stroke-opacity:1;stroke-miterlimit:10;" d="M 203.910156 146.527344 L 220.253906 153.679688 "/>
<path style="fill:none;stroke-width:1.2;stroke-linecap:butt;stroke-linejoin:miter;stroke:rgb(80%,80%,0%);stroke-opacity:1;stroke-miterlimit:10;" d="M 220.253906 153.679688 L 236.597656 160.828125 "/>
<path style=" stroke:none;fill-rule:nonzero;fill:rgb(100%,100%,100%);fill-opacity:1;" d="M 229.597656 150.828125 L 243.597656 150.828125 L 243.597656 170.828125 L 229.597656 170.828125 Z M 229.597656 150.828125 "/>
<g style="fill:rgb(80%,80%,0%);fill-opacity:1;">
  <use xlink:href="#glyph0-1" x="229.597656" y="167.055664"/>
</g>
<g style="fill:rgb(80%,80%,0%);fill-opacity:1;">
  <use xlink:href="#glyph1-2" x="238.911133" y="162.172852"/>
</g>
</g>
</svg>

<svg xmlns="http://www.w3.org/2000/svg" xmlns:xlink="http://www.w3.org/1999/xlink" width="300pt" height="300pt" viewBox="0 0 300 300"><defs><symbol overflow="visible"><path d="M.75 2.656v-13.234h7.5V2.656zm.844-.844h5.812V-9.733H1.594zm0 0"/></symbol><symbol overflow="visible" id="a"><path d="M8.03-10.578v1.437C7.47-9.4 6.94-9.6 6.44-9.735c-.5-.133-.98-.204-1.438-.204-.813 0-1.438.157-1.875.47-.438.312-.656.76-.656 1.343 0 .48.143.844.436 1.094.29.24.844.436 1.656.593l.89.187c1.103.21 1.915.578 2.44 1.11.53.53.795 1.242.795 2.124 0 1.063-.355 1.87-1.062 2.422C6.915-.05 5.875.22 4.5.22 3.977.22 3.426.155 2.844.03 2.258-.08 1.656-.253 1.03-.483V-2c.603.336 1.193.59 1.767.766.57.168 1.14.25 1.703.25.844 0 1.492-.164 1.953-.5.457-.332.688-.805.688-1.422 0-.54-.167-.96-.5-1.266-.324-.3-.86-.523-1.61-.672l-.905-.187C3.02-5.25 2.22-5.595 1.72-6.063 1.226-6.532.983-7.18.983-8.017c0-.968.336-1.726 1.016-2.28.688-.563 1.63-.845 2.828-.845.508 0 1.03.046 1.563.14.532.094 1.08.234 1.64.422zm0 0"/></symbol><symbol overflow="visible" id="b"><path d="M1.47-10.938h2L8.31-1.78v-9.158H9.75V0h-2L2.906-9.14V0H1.47zm0 0"/></symbol><symbol overflow="visible" id="d"><path d="M1.47-10.938h1.483v4.485h5.375v-4.484h1.485V0H8.328v-5.203H2.953V0H1.47zm0 0"/></symbol><symbol overflow="visible"><path d="M.594 2.125V-8.47h6V2.126zm.672-.672h4.671V-7.78h-4.67zm0 0"/></symbol><symbol overflow="visible" id="c"><path d="M5.516-7.53v3.264H8.78v1H5.517V0H4.53v-3.266H1.267v-1H4.53V-7.53zm0 0"/></symbol><symbol overflow="visible" id="e"><path d="M.594-3.766H3.75v.954H.594zm0 0"/></symbol></defs><g><path fill="#fff" d="M0 0h300v300H0z"/><path d="M92.965 262.223l-29.563-19.977" stroke-width="1.2" stroke="#000" stroke-miterlimit="10" fill="none"/><path d="M121.098 240.277L107.03 251.25" stroke-width="1.2" stroke="#00f" stroke-miterlimit="10" fill="none"/><path d="M107.03 251.25l-14.065 10.973M63.402 242.246l4.93-17.144" stroke-width="1.2" stroke="#000" stroke-miterlimit="10" fill="none"/><path d="M68.332 225.102l4.934-17.145M73.266 207.957l17.828-.61" stroke-width="1.2" stroke="#cc0" stroke-miterlimit="10" fill="none"/><path d="M91.094 207.348l17.828-.606" stroke-width="1.2" stroke="#000" stroke-miterlimit="10" fill="none"/><path d="M68.266 198.957h10v18h-10zm0 0" fill="#fff"/><use xlink:href="#a" x="68.266" y="212.571" fill="#cc0"/><path d="M108.922 206.742l6.09 16.766" stroke-width="1.2" stroke="#000" stroke-miterlimit="10" fill="none"/><path d="M115.012 223.508l6.086 16.77" stroke-width="1.2" stroke="#00f" stroke-miterlimit="10" fill="none"/><path d="M118.03 207.23l4.872 13.415" stroke-width="1.2" stroke="#000" stroke-miterlimit="10" fill="none"/><path d="M122.902 220.645l4.87 13.414" stroke-width="1.2" stroke="#00f" stroke-miterlimit="10" fill="none"/><path d="M137.06 184.797L122.99 195.77" stroke-width="1.2" stroke="#cc0" stroke-miterlimit="10" fill="none"/><path d="M122.992 195.77l-14.07 10.972" stroke-width="1.2" stroke="#000" stroke-miterlimit="10" fill="none"/><path d="M121.098 240.277l17.828-.605" stroke-width="1.2" stroke="#00f" stroke-miterlimit="10" fill="none"/><path d="M138.926 239.672l17.832-.61" stroke-width="1.2" stroke="#000" stroke-miterlimit="10" fill="none"/><path d="M110.098 230.277h22v20h-22zm0 0" fill="#fff"/><use xlink:href="#b" x="110.098" y="246.505" fill="#00f"/><use xlink:href="#c" x="121.073" y="241.622" fill="#00f"/><path d="M156.758 239.063l24.762 25.687M165.277 235.805l19.813 20.55M166.62 204.773l-9.862 34.29M181.52 264.75l34.628-8.602M216.148 256.148l9.864-34.29M209.066 250.398l7.89-27.433M226.012 221.86l-24.766-25.688M201.246 196.172l-34.625 8.6M199.81 205.18l-27.7 6.882M166.62 204.773l-14.78-9.988" stroke-width="1.2" stroke="#000" stroke-miterlimit="10" fill="none"/><path d="M151.84 194.785l-14.78-9.988" stroke-width="1.2" stroke="#cc0" stroke-miterlimit="10" fill="none"/><path d="M132.06 175.797h10v18h-10zm0 0" fill="#fff"/><use xlink:href="#a" x="132.059" y="189.411" fill="#cc0"/><path d="M95.426 161.012l-26.672-23.7M98.336 152.363L77 133.406M129.285 149.762l-33.86 11.25M68.754 137.313l7.19-34.95M75.945 102.363l33.86-11.25M81.977 109.207l27.09-9M109.805 91.113l26.672 23.703" stroke-width="1.2" stroke="#000" stroke-miterlimit="10" fill="none"/><path d="M124.102 58.426l-7.15 16.344" stroke-width="1.2" stroke="#cc0" stroke-miterlimit="10" fill="none"/><path d="M116.953 74.77l-7.148 16.343M136.477 114.816l-7.192 34.946M127.535 116.617l-5.754 27.96M136.477 114.816l15.39-9.023" stroke-width="1.2" stroke="#000" stroke-miterlimit="10" fill="none"/><path d="M151.867 105.793l15.39-9.02M167.258 96.773l-3.824-17.425" stroke-width="1.2" stroke="#00f" stroke-miterlimit="10" fill="none"/><path d="M163.434 79.348l-3.825-17.426" stroke-width="1.2" stroke="#000" stroke-miterlimit="10" fill="none"/><path d="M167.258 96.773l16.344 7.15" stroke-width="1.2" stroke="#00f" stroke-miterlimit="10" fill="none"/><path d="M183.602 103.922l16.347 7.148" stroke-width="1.2" stroke="#000" stroke-miterlimit="10" fill="none"/><path d="M162.258 87.773h11v18h-11zm0 0" fill="#fff"/><use xlink:href="#b" x="162.258" y="101.388" fill="#00f"/><path d="M162.75 64.71l11.848-13.335" stroke-width="1.2" stroke="#000" stroke-miterlimit="10" fill="none"/><path d="M174.598 51.375l11.85-13.336" stroke-width="1.2" stroke="#00f" stroke-miterlimit="10" fill="none"/><path d="M156.473 59.133l11.85-13.336" stroke-width="1.2" stroke="#000" stroke-miterlimit="10" fill="none"/><path d="M168.324 45.797l11.848-13.336" stroke-width="1.2" stroke="#00f" stroke-miterlimit="10" fill="none"/><path d="M159.61 61.922l-17.755-1.75" stroke-width="1.2" stroke="#000" stroke-miterlimit="10" fill="none"/><path d="M141.855 60.172l-17.753-1.746" stroke-width="1.2" stroke="#cc0" stroke-miterlimit="10" fill="none"/><path d="M172.31 26.25h23v18h-23zm0 0" fill="#fff"/><g fill="#00f"><use xlink:href="#b" x="172.309" y="39.864"/><use xlink:href="#d" x="183.284" y="39.864"/></g><path d="M119.102 49.426h10v18h-10zm0 0" fill="#fff"/><use xlink:href="#a" x="119.102" y="63.04" fill="#cc0"/><path d="M199.95 111.07l3.96 35.457M203.91 146.527l16.344 7.153" stroke-width="1.2" stroke="#000" stroke-miterlimit="10" fill="none"/><path d="M220.254 153.68l16.344 7.148" stroke-width="1.2" stroke="#cc0" stroke-miterlimit="10" fill="none"/><path d="M229.598 150.828h14v20h-14zm0 0" fill="#fff"/><use xlink:href="#a" x="229.598" y="167.056" fill="#cc0"/><use xlink:href="#e" x="238.911" y="162.173" fill="#cc0"/></g></svg>
